X:1
T:Title
%%score [ ( 1 2 ) ( 3 4 ) ]
L:1/8
Q:1/4=100
M:4/4
K:C
V:1 treble nm="Midi_20" snm=" "
V:2 treble 
V:3 bass nm="Midi_20"
V:4 bass 
V:1
"^High in the heavens, eternal God""^Samuel Webbe\n(1740-1816)""^Thomas Moore\n(1779-1852)""^Alma Redemptoris (11 10. 11 10)" G4 E2 C2 | %1
 A3 G G4 | (F3 E) FG AB | c4 G4 || E4 E2 E2 | F2 A2 (c2 A2) | G4 ^F2 F2 | G8 ||[M:4/4] c4 B2 A2 | %9
 G3 F (E2 G2) | c4 B2 A2 | (G3 F) E4 || (G2 e2) e2 c2 | (c2 A2) A2 F2 | E4 D3 C | C8 |] %16
V:2
 C4 C2 C2 | C3 C C4 | C4 C2 F2 | E4 C4 || C4 C2 C2 | C2 C2 (G2 E2) | D4 D2 D2 | D8 || %8
[M:4/4] E4 G2 F2 | E3 D (C2 E2) | E4 G2 F2 | (E3 D) C4 || (E2 G2) G2 G2 | (C2 F2) F2 D2 | %14
 C4 B,3 C | C8 |] %16
V:3
 E,4 G,2 E,2 | F,3 G, G,4 | (A,3 G,) A,2 F,2 | G,4 E,4 || G,4 G,2 G,2 | F,2 F,2 (G,2 C2) | %6
 B,4 A,2 A,2 | B,8 || %8
[M:4/4]"^1. Come, ye disconsolate, where'er ye languish,\nCome to the mercy-seat, fervently kneel;\nHere bring your wounded hearts, here tell your anguish;\nEarth hath no sorrows that heaven cannot heal.\n\n2. Joy of the desolate, Light of the straying,\nHope of the penitent, fadeless and pure!\nHere speaks the Comforter, tenderly saying,\nEarth hath no sorrows that heaven cannot cure." C4 G,2 A,B, | %9
 C,3 G, G,4 | G,4 G,2 A,B, | (C3 G,) G,4 || %12
"^3. Here see the Bread of Life; see waters flowing\nForth from the throne of God, pure from above:\nCome to the feast of love; come, ever knowing\nEarth hath no sorrows but heaven can remove." C4 C2 G,2 | %13
 (A,2 C2) C2 A,2 | G,4 F,3 E, | E,8 |] %16
V:4
 C,4 C,2 C,2 | F,3 E, E,4 | (A,,3 C,) F,2 D,2 | C,4 C,4 || C,4 C,3 B,, | A,,2 F,2 (E,2 C,2) | %6
 D,4 D,2 D,2 | G,8 ||[M:4/4] C,4 C,2 C,2 | C,3 C, C,4 | C,4 C,2 C,2 | C,4 C,4 || C4 C,2 E,2 | %13
 F,4 F,2 F,2 | G,4 G,,3 C, | C,8 |] %16

